X:434
T:Lady Margaret Stewart
R:Reel
B:The Athole Collection
M:C|
L:1/8
K:B Minor
g|f2Bf dBfB|f/^g/a ef cAec|f2Bf dBfd|ecac B/B/B ~B:|
|:A|FBBc dBcA|EAAB cdec|1 FBBc dBdb|afec B/B/B B:|2
dBdb cAce|dfec B/B/B B||

